X: 65
%
U:~=!turn!
T: The Brig of Tilt
C:
O:Scotland
B:Keith Norman MacDonald : "The Skye collection of the best reels & strathspeys extant" : 1887
Z:Ralph Palmer
R:Reel
M:C|
L:1/8
K:D
A | {/G}FD F/2G/2A {/c}d2 AG | {/G}FD F/2G/2A {/F}GEEG | {/G}FD F/2G/2A {/c}d2 AB |
{/c}dfeg fdd :: g | fdad bdad | fdad {/f}geeg |
[1 fdad bdad | {/f}geag fdd :| [2 fadg gbeg | ABcd fdd |]


